!!!COM: Balsamino, Simone
!!!CDT:
!!!PTL: Novellette a sei voci
!!!PPP: Venice
!!!PPR: Amadino
!!!PDT: 1594
!!!RISM: B0785
!!!OTL: Picciola è l'ape e fa col picciol morso (Aminta II/1)
!!!AGN: Madrigal
!!!SCT: Tam2010724a
!!!SCA: Tam2010724a
!!!voices: 6
**kern	**text	**kern	**text	**kern	**text	**kern	**text	**kern	**text	**kern	**text
*part6	*part6	*part5	*part5	*part4	*part4	*part3	*part3	*part2	*part2	*part1	*part1
*staff6	*staff6	*staff5	*staff5	*staff4	*staff4	*staff3	*staff3	*staff2	*staff2	*staff1	*staff1
*I"Basso	*	*I"Quinto	*	*I"Tenore	*	*I"Alto	*	*I"Sesto	*	*I"Canto	*
*I'B	*	*I'Q	*	*I'T	*	*I'A	*	*I'S	*	*I'C	*
*clefF4	*	*clefGv2	*	*clefG2	*	*clefG2	*	*clefG2	*	*clefG2	*
*k[]	*	*k[]	*	*k[]	*	*k[]	*	*k[]	*	*k[]	*
!!!ONB: no meter (mensuration)
2G	Pic-	0r	.	2d	Pic-	2g	Pic-	2b	Pic-	0r	.
4G	-cio-	.	.	4d	-cio-	4g	-cio-	4b	-cio-	.	.
4G	-la è	.	.	4d	-la è	4g	-la è	4b	-la è	.	.
4.D	l'A-	.	.	4.d	l'A-	4.f#X	l'A-	4.a	l'A-	.	.
8G	-pe, e	.	.	8d	-pe, e	8g	-pe, e	8b	-pe, e	.	.
4.F	fa	.	.	4.f	fa	4.a	fa	4.cc	fa	.	.
8F	col	.	.	8c	col	8fnXi	col	8a	col	.	.
=1-	=1-	=1-	=1-	=1-	=1-	=1-	=1-	=1-	=1-	=1-	=1-
4F	pic-	1%3r	.	4c	pic-	4f	pic-	4a	pic-	1%3r	.
4D	-ciol	.	.	4d	-ciol	4f	-ciol	4a	-ciol	.	.
2A	mor-	.	.	2c#X	mor-	2e	mor-	2a	mor-	.	.
2A	-so	.	.	2c#i	-so	2e	-so	2a	-so	.	.
4G	Pur	.	.	4d	Pur	4g	Pur	4b	Pur	.	.
2G	gra-	.	.	2d	gra-	2g	gra-	2b	gra-	.	.
4G	-vi e	.	.	4d	-vi e	4g	-vi e	4b	-vi e	.	.
4G	pur	.	.	4d	pur	4g	pur	4b	pur	.	.
4F	mo-	.	.	4f	mo-	4a	mo-	4cc	mo-	.	.
=2-	=2-	=2-	=2-	=2-	=2-	=2-	=2-	=2-	=2-	=2-	=2-
2A	-le-	1ryy	.	2e	-le-	2a	-le-	2cc	-le-	1ryy	.
4G	-ste	.	.	4B	-ste	4d	-ste	4dd	-ste	.	.
2G	le	.	.	2d	le	2g	le	2dd	le	.	.
.	.	1ryy	.	.	.	.	.	.	.	1ryy	.
4D	fe-	.	.	4f	fe-	4a	fe-	4dd	fe-	.	.
2A	-ri-	.	.	2e	-ri-	2a	-ri-	2cc#X	-ri-	.	.
2D	-te;	2ryy	.	2d	-te;	2a	-te;	2dd	-te;	2ryy	.
2ryy	.	4A	Ma	4e	Ma	4a	Ma	2ryy	.	4cc#X	Ma
.	.	4d	qual	4f	qual	4a	qual	.	.	4dd	qual
=3-	=3-	=3-	=3-	=3-	=3-	=3-	=3-	=3-	=3-	=3-	=3-
1%3r	.	4c	co-	4g	co-	4cc	co-	1%3r	.	4ee	co-
.	.	8cL	-sa è	8gL	-sa è	8ccL	-sa è	.	.	8eeL	-sa è
.	.	8cJ	più	8gJ	più	8ccJ	più	.	.	8eeJ	più
.	.	8cL	pic-	8gL	pic-	8ccL	pic-	.	.	8eeL	pic-
.	.	8c	-cio-	8g	-cio-	8cc	-cio-	.	.	8ee	-cio-
.	.	8c	-la	8g	-la	8cc	-la	.	.	8ee	-la
.	.	8cJ	d'A-	8gJ	d'A-	8gJ	d'A-	.	.	8eeJ	d'A-
.	.	4A	-mo-	4f#X	-mo-	4a	-mo-	.	.	4cc#X	-mo-
.	.	4c	-re,	4g	-re,	4g	-re,	.	.	4ee	-re,
.	.	4r	.	4r	.	4r	.	.	.	4r	.
.	.	4G	Se in	4g	Se in	4g	Se in	.	.	4b	Se in
.	.	4.G	o-	4.d	o-	4.g	o-	.	.	4.b	o-
.	.	8G	-gni	8d	-gni	8g	-gni	.	.	8b	-gni
.	.	4.G	bre-	4.d	bre-	4.g	bre-	.	.	4.b	bre-
.	.	8G	-ve	8d	-ve	8g	-ve	.	.	8b	-ve
=4-	=4-	=4-	=4-	=4-	=4-	=4-	=4-	=4-	=4-	=4-	=4-
1%3r	.	4G	spa-	4d	spa-	4g	spa-	1%3r	.	4b	spa-
.	.	2c	-zio en-	2e	-zio en-	2g	-zio en-	.	.	2cc	-zio en-
.	.	4c	-tra,	4e	-tra,	4g	-tra,	.	.	4cc	-tra,
.	.	4r	.	4r	.	4r	.	.	.	4r	.
.	.	8GL	e	8dL	e	8gL	e	.	.	8bL	e
.	.	8AJ	s'a-	8cJ	s'a-	8eJ	s'a-	.	.	8ccJ	s'a-
.	.	4G	-scon-	4B	-scon-	4g	-scon-	.	.	4dd	-scon-
.	.	4G	-de In	4d	-de In	4g	-de In	.	.	4b	-de In
.	.	4c	o-	4e	o-	4g	o-	.	.	4cc	o-
.	.	4c	-gni	4e	-gni	4g	-gni	.	.	4cc	-gni
.	.	4A	bre-	4e	bre-	4a	bre-	.	.	4cc	bre-
.	.	4A	-ve	4e	-ve	4a	-ve	.	.	4cc	-ve
=5-	=5-	=5-	=5-	=5-	=5-	=5-	=5-	=5-	=5-	=5-	=5-
2ryy	.	2e	spa-	2e	spa-	2g#X	spa-	1ryy	.	2b	spa-
2ryy	.	2A	-zio?	2c#i	-zio?	2a	-zio?	.	.	2a	-zio?
2E	Or	2ryy	.	2B	Or	1ryy	.	2g#X	Or	1ryy	.
4E	sot-	1ryy	.	4B	sot-	.	.	4g#i	sot-	.	.
4E	-to a	.	.	4c#i	-to a	.	.	4g#i	-to a	.	.
4F	l'om-	.	.	4c#i	l'om-	1ryy	.	4a	l'om-	1ryy	.
8FL	-bra	.	.	8c#iL	-bra	.	.	8aL	-bra	.	.
8FJ	de	.	.	8dJ	de	.	.	8aJ	de	.	.
4G	le	1ryy	.	4e	le	.	.	4b	le	.	.
4G	pal-	.	.	4e	pal-	.	.	4b	pal-	.	.
2A	-pe-	.	.	2e	-pe-	2ryy	.	2cc	-pe-	2ryy	.
=6-	=6-	=6-	=6-	=6-	=6-	=6-	=6-	=6-	=6-	=6-	=6-
2A	-bre,	2ryy	.	2e	-bre,	2ryy	.	2cc	-bre,	2ryy	.
2ryy	.	2A	Or	2ryy	.	2e	Or	2ryy	.	2cc	Or
1ryy	.	4A	tra'	1ryy	.	4e	tra'	1ryy	.	4cc	tra'
.	.	4A	mi-	.	.	4f	mi-	.	.	4cc	mi-
.	.	4B	-nu-	.	.	4f#X	-nu-	.	.	4dd	-nu-
.	.	4B	-ti	.	.	4g	-ti	.	.	4dd	-ti
1ryy	.	4c	ri-	1ryy	.	4g	ri-	1ryy	.	4ee	ri-
.	.	8cL	-vi	.	.	8gL	-vi	.	.	8eeL	-vi
.	.	8cJ	D'un	.	.	8aJ	D'un	.	.	8eeJ	D'un
.	.	4d	bion-	.	.	4a	bion-	.	.	4dd	bion-
.	.	4d	-do	.	.	4a	-do	.	.	4b	-do
=7-	=7-	=7-	=7-	=7-	=7-	=7-	=7-	=7-	=7-	=7-	=7-
1ryy	.	2e	cri-	1ryy	.	2g#X	cri-	1ryy	.	2b	cri-
.	.	2e	-ne,	.	.	2g#X	-ne,	.	.	2b	-ne,
2E	Or	1ryy	.	2B	Or	1ryy	.	2g#X	Or	1ryy	.
4F	den-	.	.	4A	den-	.	.	4a	den-	.	.
4F	-tro	.	.	4d	-tro	.	.	4a	-tro	.	.
4G	le	1ryy	.	4d	le	1ryy	.	4b	le	1ryy	.
4G	poz-	.	.	4e	poz-	.	.	4b	poz-	.	.
2A	-zet-	.	.	2e	-zet-	.	.	2cc#X	-zet-	.	.
=8-	=8-	=8-	=8-	=8-	=8-	=8-	=8-	=8-	=8-	=8-	=8-
4.A	-te	1%3r	.	4.e	-te	1%3r	.	4.cc#X	-te	1%3r	.
8A	Che	.	.	8f	Che	.	.	8cc#i	Che	.	.
4B	for-	.	.	4f#X	for-	.	.	4dd	for-	.	.
4B	-ma un	.	.	4g	-ma un	.	.	4dd	-ma un	.	.
4c	dol-	.	.	4g	dol-	.	.	4ee	dol-	.	.
4c	-ce	.	.	4g	-ce	.	.	4ee	-ce	.	.
8cL	ri-	.	.	4.g	ri-	.	.	8eeL	ri-	.	.
8B	.	.	.	.	.	.	.	8dd	.	.	.
8c	.	.	.	.	.	.	.	8ee	.	.	.
8dJ	.	.	.	8fnXi	.	.	.	8ffJ	.	.	.
4.c	.	.	.	4.g	.	.	.	4.ee	.	.	.
8G	-so in	.	.	8g	-so in	.	.	8b	-so in	.	.
4F	bel-	.	.	4a	bel-	.	.	4ccnXi	bel-	.	.
4D	-la	.	.	4f	-la	.	.	4dd	-la	.	.
=9-	=9-	=9-	=9-	=9-	=9-	=9-	=9-	=9-	=9-	=9-	=9-
2A	guan-	1ryy	.	2e	guan-	1ryy	.	2cc	guan-	1ryy	.
2D	-cia;	.	.	2f	-cia;	.	.	2dd	-cia;	.	.
1c	E	1c	E	1e	E	1cc	E	1ee	E	1gg	E
4F	pur	4c	pur	4f	pur	4a	pur	4cc	pur	4ff	pur
4F	fa	4c	fa	4f	fa	4a	fa	4cc	fa	4ff	fa
4F	tan-	4c	tan-	4.f	tan-	4.a	tan-	4cc	tan-	4.ff	tan-
4F	-to	4c	-to	.	.	.	.	4cc	-to	.	.
.	.	.	.	8f	-to	8a	-to	.	.	8ff	-to
=10-	=10-	=10-	=10-	=10-	=10-	=10-	=10-	=10-	=10-	=10-	=10-
4.F	gran-	4.c	gran-	4.f	gran-	4.a	gran-	4.cc	gran-	4.ff	gran-
8F	-di e	8c	-di e	8f	-di e	8a	-di e	8cc	-di e	8ff	-di e
4F	sì	4A	sì	4f	sì	4a	sì	4cc	sì	4ff	sì
4D	mor-	4A	mor-	4a	mor-	4a	mor-	4dd	mor-	4ff	mor-
2A	-ta-	2A	-ta-	2e	-ta-	2a	-ta-	2cc#X	-ta-	2ee	-ta-
2A	-li	2r	-li	2e	-li	2a	-li	2cc#i	-li	2ee	-li
4r	.	4r	.	4r	.	4r	.	4r	.	4r	.
4G	E	4d	E	4g	E	4b	E	4dd	E	4gg	E
4G	co-	4d	co-	4g	co-	4b	co-	4dd	co-	4gg	co-
4G	-sì im-	4d	-sì im-	4g	-sì im-	4b	-sì im-	4dd	-sì im-	4gg	-sì im-
=11-	=11-	=11-	=11-	=11-	=11-	=11-	=11-	=11-	=11-	=11-	=11-
4G	-me-	4d	-me-	4g	-me-	4b	-me-	4dd	-me-	4gg	-me-
4G	-di-	4d	-di-	4g	-di-	4b	-di-	4dd	-di-	4gg	-di-
2.G	-ca-	2.d	-ca-	2.g	-ca-	2.b	-ca-	2.dd	-ca-	2.gg	-ca-
4G	-bi-	4d	-bi-	4d	-bi-	4b	-bi-	4b	-bi-	4gg	-bi-
4F	-li	4A	-li	4f	-li	4a	-li	4cc	-li	4aa	-li
4D	le	4A	le	4f	le	4a	le	4dd	le	4ff	le
1A	pia-	1A	pia-	1e	pia-	1a	pia-	1cc#X	pia-	1ee	pia-
=12-	=12-	=12-	=12-	=12-	=12-	=12-	=12-	=12-	=12-	=12-	=12-
2D	-ghe.	2A	-ghe.	1f	-ghe.	1a	-ghe.	1dd	-ghe.	1dd	-ghe.
2ryy	.	2r	.	.	.	.	.	.	.	.	.
1ryy	.	1c	Ohi-	1ryy	.	1g	Ohi-	1ee	Ohi-	1gg	Ohi-
1ryy	.	4A	-mè,	1ryy	.	4a	-mè,	4cc	-mè,	4ff	-mè,
.	.	4A	che	.	.	4a	che	4cc	che	4ee	che
.	.	4A	tut-	.	.	4a	tut-	4cc	tut-	4ee	tut-
.	.	4A	-te	.	.	4a	-te	4cc	-te	4ee	-te
=13-	=13-	=13-	=13-	=13-	=13-	=13-	=13-	=13-	=13-	=13-	=13-
1%3r	.	2.A	pia-	1%3r	.	2.a	pia-	2.cc#X	pia-	2.ee	pia-
.	.	4A	-ga e	.	.	4a	-ga e	4cc#i	-ga e	4ee	-ga e
.	.	4G	tut-	.	.	4b	tut-	4dd	tut-	4gg	tut-
.	.	4G	-to	.	.	4g	-to	4b	-to	4dd	-to
.	.	2d	san-	.	.	2f#X	san-	2a	san-	2dd	san-
.	.	2d	-gue	.	.	2f#i	-gue	2a	-gue	2dd	-gue
.	.	4c	Son	.	.	4g	Son	4ccnXi	Son	4ee	Son
.	.	4c	le	.	.	4g	le	4cc	le	4ee	le
=14-	=14-	=14-	=14-	=14-	=14-	=14-	=14-	=14-	=14-	=14-	=14-
1ryy	.	4.c	vi-	1ryy	.	4.g	vi-	4.cc	vi-	4.ee	vi-
.	.	8c	-sce-	.	.	8g	-sce-	8cc	-sce-	8ee	-sce-
.	.	2G	-re	.	.	2g	-re	2b	-re	2dd	-re
1ryy	.	2A	mi-	1ryy	.	2e	mi-	2a	mi-	2cc#X	mi-
.	.	2A	-e;	.	.	2e	-e;	2a	-e;	2cc#X	-e;
2A	E	2c#X	E	2a	E	1ryy	.	2ee	E	1ryy	.
4d	mil-	4d	mil-	4a	mil-	.	.	4ff	mil-	.	.
4G	-le	4B	-le	4g	-le	.	.	4ee	-le	.	.
=15-	=15-	=15-	=15-	=15-	=15-	=15-	=15-	=15-	=15-	=15-	=15-
2G	spie-	2B	spie-	2g	spie-	1%3r	.	2dd	spie-	1%3r	.
4G	-di	4B	-di	4d	-di	.	.	4ee	-di	.	.
4.A	Ha	4.e	Ha	4.a	Ha	.	.	4.cc	Ha	.	.
8A	ne-	8e	ne	8a	ne-	.	.	8cc	ne-	.	.
4A	-gli oc-	4e	gli oc-	4a	-gli oc-	.	.	4cc	-gli oc-	.	.
4G	-chi	4B	-chi	4d	-chi	.	.	4b	-chi	.	.
4D	di	4d	di	4f	di	.	.	4a	di	.	.
2A	Sil-	2e	Sil-	2e	Sil-	.	.	2cc	Sil-	.	.
2d	-via il	2d	-via	2f#X	-via il	.	.	2dd	-via il	.	.
=16-	=16-	=16-	=16-	=16-	=16-	=16-	=16-	=16-	=16-	=16-	=16-
4c	cru-	1ryy	.	4g	cru-	1ryy	.	4ee	cru-	1ryy	.
4c	-do A-	.	.	4e	-do A-	.	.	4ee	-do A-	.	.
2B	-mo-	.	.	2f#X	-mo-	.	.	2dd#X	-mo-	.	.
2B	-re.	2ryy	.	2f#X	-re.	2ryy	.	2dd#i	-re.	2ryy	.
2ryy	.	2d	Cru-	2ryy	.	2a	Cru-	2ryy	.	2ff	Cru-
1ryy	.	4c	-de-	1ryy	.	4a	-de-	1ryy	.	4ee	-de-
.	.	4c	-le A-	.	.	4e	-le A-	.	.	4ee	-le A-
.	.	2B	-mo-	.	.	2f#X	-mo-	.	.	2dd	-mo-
=17-	=17-	=17-	=17-	=17-	=17-	=17-	=17-	=17-	=17-	=17-	=17-
2ryy	.	2B	-re.	2ryy	.	2f#i	-re.	2ryy	.	2dd	-re.
2d	Sil-	2ryy	.	2a	Sil-	2ryy	.	2ff	Sil-	2ryy	.
4c	-via	1ryy	.	4a	-via	1ryy	.	4ee	-via	1ryy	.
4c	cru-	.	.	4e	cru-	.	.	4ee	cru-	.	.
2.B	-de-	.	.	2.f#X	-de-	.	.	2.dd	-de-	.	.
.	.	1ryy	.	.	.	1ryy	.	.	.	1ryy	.
4A	-le ed	.	.	4f#i	-le ed	.	.	4cc#X	-le ed	.	.
2B	em-	.	.	2f#i	em-	.	.	2dd	em-	.	.
=18-	=18-	=18-	=18-	=18-	=18-	=18-	=18-	=18-	=18-	=18-	=18-
4A	-pia	1ryy	.	4f#i	-pia	1ryy	.	4cc#i	-pia	1ryy	.
4G	Più	.	.	4g	Più	.	.	4dd	Più	.	.
4G	che	.	.	4d	che	.	.	4b	che	.	.
4D	le	.	.	4f#i	le	.	.	4dd	le	.	.
2A	sel-	1ryy	.	2e	sel-	1ryy	.	2cc#i	sel-	1ryy	.
2D	-ve!	.	.	2d	-ve!	.	.	2dd	-ve!	.	.
1c	Oh	1c	Oh	1e	Oh	1cc	Oh	1ee	Oh	1gg	Oh
=19-	=19-	=19-	=19-	=19-	=19-	=19-	=19-	=19-	=19-	=19-	=19-
4F	co-	4c	co-	4f	co-	4a	co-	4cc	co-	4ff	co-
4F	-me a	4c	-me a	4f	-me a	4a	-me a	4cc	-me a	4ff	-me a
4F	te	4c	te	4f	te	4a	te	4cc	te	4ff	te
4F	con-	4c	con-	4f	con-	4a	con-	4cc	con-	4ff	con-
4.F	-fas-	4.c	-fas-	4.f	-fas-	4.a	-fas-	4.cc	-fas-	4.ff	-fas-
8C	-si	8c	-si	8g	-si	8g	-si	8cc	-si	8ee	-si
2G	Tal	2G	Tal	2d	Tal	2g	Tal	2b	Tal	2dd	Tal
2D	no-	2A	no-	2d	no-	2f#X	no-	2a	no-	2dd	no-
2G	-me,	2G	-me,	2d	-me,	2g	-me,	2b	-me,	2dd	-me,
=20-	=20-	=20-	=20-	=20-	=20-	=20-	=20-	=20-	=20-	=20-	=20-
4r	.	4r	.	1%3r	.	4r	.	4r	.	4r	.
4D	e	4A	e	.	.	4a	e	4a	e	4dd	e
4.A	quan-	4.A	quan-	.	.	4a	quan-	4.cc	quan-	4.ee	quan-
.	.	.	.	.	.	4a	-to	.	.	.	.
8A	-to	8e	-to	.	.	.	.	8cc	-to	8ee	-to
4.A	vi-	4.e	vi-	.	.	4.a	vi-	4.cc	vi-	4.ee	vi-
8A	-de	8e	-de	.	.	8a	-de	8cc	-de	8ee	-de
4A	chi	4e	chi	.	.	4a	chi	4cc	chi	4ee	chi
4A	te'l	4A	te'l	.	.	4a	te'l	4cc	te'l	4ee	te'l
2D	po-	2A	po-	.	.	2f#X	po-	2a	po-	2dd	po-
2A	-se!	2A	-se!	.	.	2a	-se!	2cc	-se!	2ee	-se!
=21-	=21-	=21-	=21-	=21-	=21-	=21-	=21-	=21-	=21-	=21-	=21-
1%3r	.	1c	Ce-	1%3r	.	1g	Ce-	1%3r	.	1ee	Ce-
.	.	4A	-lan	.	.	4f	-lan	.	.	4cc	-lan
.	.	4A	le	.	.	4e	le	.	.	4cc	le
.	.	2A	sel-	.	.	2e	sel-	.	.	2cc	sel-
.	.	4A	-ve an-	.	.	4e	-ve an-	.	.	4cc	-ve an-
.	.	8AL	-gui,	.	.	8eL	-gui,	.	.	8ccL	-gui,
.	.	8AJ	le-	.	.	8eJ	le-	.	.	8ccJ	le-
.	.	4F#X	-o-	.	.	4d	-o-	.	.	4a	-o-
.	.	4G	-ni ed	.	.	4B	-ni ed	.	.	4b	-ni ed
=22-	=22-	=22-	=22-	=22-	=22-	=22-	=22-	=22-	=22-	=22-	=22-
1ryy	.	2A	or-	1ryy	.	2e	or-	1ryy	.	2cc	or-
.	.	4A	-si	.	.	4e	-si	.	.	4cc	-si
.	.	4A	Den-	.	.	4f	Den-	.	.	4cc	Den-
1ryy	.	4B-X	-tro il	1ryy	.	4f	-tro il	1ryy	.	4dd	-tro il
.	.	4G	lor	.	.	4g	lor	.	.	4dd	lor
.	.	2A	ver-	.	.	2e	ver-	.	.	2cc#X	ver-
2ryy	.	2A	-de;	2ryy	.	2e	-de;	2ryy	.	2cc#X	-de;
1c	e	2ryy	.	1e	e	2ryy	.	1gg	e	2ryy	.
.	.	1ryy	.	.	.	1ryy	.	.	.	1ryy	.
4A	tu	.	.	4e	tu	.	.	4cc	tu	.	.
4A	den-	.	.	4e	den-	.	.	4cc	den-	.	.
=23-	=23-	=23-	=23-	=23-	=23-	=23-	=23-	=23-	=23-	=23-	=23-
4F#X	-tro al	1%3r	.	4d	-tro al	1%3r	.	4a	-tro al	1%3r	.
4G	bel	.	.	4B	bel	.	.	4b	bel	.	.
2A	pet-	.	.	2e	pet-	.	.	2cc	pet-	.	.
4A	-to	.	.	4e	-to	.	.	4cc	-to	.	.
4B	Na-	.	.	4g	Na-	.	.	4dd	Na-	.	.
4c	-scon-	.	.	4g	-scon-	.	.	4ee	-scon-	.	.
2G	-di o-	.	.	2g	-di o-	.	.	2dd	-di o-	.	.
4G	-dio,	.	.	4g	-dio,	.	.	4dd	-dio,	.	.
4r	.	.	.	4r	.	.	.	4r	.	.	.
4A	di-	.	.	4e	di-	.	.	4cc#X	di-	.	.
=24-	=24-	=24-	=24-	=24-	=24-	=24-	=24-	=24-	=24-	=24-	=24-
4A	-sde-	1ryy	.	4e	-sde-	1ryy	.	4cc#i	-sde-	1ryy	.
4D	-gno, ed	.	.	4f	-gno, ed	.	.	4dd	-gno, ed	.	.
4A	im-	.	.	4e	im-	.	.	4cc#i	im-	.	.
4A	-pie-	.	.	4A	-pie-	.	.	4cc#i	-pie-	.	.
2E	-ta-	1ryy	.	2G#X	-ta-	1ryy	.	2b	-ta-	1ryy	.
2A	-te,	.	.	2A	-te,	.	.	2a	-te,	.	.
4r	.	4r	.	4r	.	4r	.	4r	.	4r	.
4.G	Fe-	4.d	Fe-	4.g	Fe-	4.b	Fe-	4.dd	Fe-	4.gg	Fe-
8G	-re	8d	-re	8g	-re	8b	-re	8dd	-re	8gg	-re
4G	peg-	4d	peg-	4g	peg-	4b	peg-	4dd	peg-	4gg	peg-
=25-	=25-	=25-	=25-	=25-	=25-	=25-	=25-	=25-	=25-	=25-	=25-
2G	-gior	2d	-gior	2g	-gior	2b	-gior	2dd	-gior	2gg	-gior
2C	ch'an-	2c	ch'an-	2g	ch'an-	2cc	ch'an-	2ee	ch'an-	2gg	ch'an-
4F	-gui,	4c	-gui,	4f	-gui,	4cc	-gui,	4ff	-gui,	4aa	-gui,
4F	le-	4c	le-	4f	le-	4cc	le-	4ff	le-	4aa	le-
4C	-o-	4c	-o-	4g	-o-	4cc	-o-	4ee	-o-	4gg	-o-
4C	-ni ed	4c	-ni ed	4g	-ni ed	4cc	-ni ed	4ee	-ni ed	4gg	-ni ed
2G	or-	2d	or-	2g	or-	2b	or-	2dd	or-	2gg	or-
2C	-si	2e	-si	2g	-si	2cc	-si	2cc	-si	2ee	-si
=26-	=26-	=26-	=26-	=26-	=26-	=26-	=26-	=26-	=26-	=26-	=26-
1.E	Ché	00r	.	1.e	Ché	00r	.	1.g#X	Ché	1.b	Ché
2F	si	.	.	2c	si	.	.	2a	si	2a	si
1.G	pla-	.	.	1.g	pla-	.	.	1.b	pla-	1.dd	pla-
4D	-ca-	.	.	4f#X	-ca-	.	.	4a	-ca-	4dd	-ca-
4D	-no	.	.	4f#X	-no	.	.	4a	-no	4dd	-no
=27-	=27-	=27-	=27-	=27-	=27-	=27-	=27-	=27-	=27-	=27-	=27-
2D	quei,	2ryy	.	2f#i	quei,	2ryy	.	2a	quei,	2a	quei,
4r	.	4r	.	4r	.	4r	.	4r	.	4r	.
4B-X	que-	4f	que-	4d	que-	4b-X	que-	4dd	que-	4dd	que-
4B-i	-sti	4f	-sti	4d	-sti	4b-i	-sti	4ff	-sti	4dd	-sti
4B-i	pla-	4f	pla-	4d	pla-	4b-i	pla-	4ff	pla-	4dd	pla-
2B-i	-car-	2f	-car-	2d	-car-	2b-i	-car-	2ff	-car-	2dd	-car-
4B-i	-si	4f	-si	4d	-si	4b-i	-si	4ff	-si	4dd	-si
4F	Non	4f	Non	4fnXi	Non	4a	Non	4ff	Non	4cc	Non
4.B-i	pos-	4.f	pos-	4.d	pos-	4.b-i	pos-	4.ff	pos-	4.dd	pos-
8B-i	-so-	8f	-so-	8d	-so-	8b-i	-so-	8ff	-so-	8dd	-so-
=28-	=28-	=28-	=28-	=28-	=28-	=28-	=28-	=28-	=28-	=28-	=28-
4B-i	-no	4f	-no	4d	-no	4b-i	-no	4ff	-no	4dd	-no
4F	per	4f	per	4A	per	4a	per	4ff	per	4cc	per
2c	pre-	2g	pre-	2e	pre-	2g	pre-	2ee	pre-	2cc	pre-
4c	-go	4e	-go	4e	-go	4g	-go	4ee	-go	4cc	-go
2c	né	2e	né	2e	né	2g	né	2ee	né	2cc	né
4d	per	4f	per	4d	per	4f	per	4dd	per	4a	per
1A	do-	1e	do-	1e	do-	1a	do-	1cc	do-	1a	do-
=29-	=29-	=29-	=29-	=29-	=29-	=29-	=29-	=29-	=29-	=29-	=29-
1D	-no.	1d	-no.	2f	-no.	2a	-no.	1dd	-no.	1a	-no.
.	.	.	.	2r	.	2ryy	.	.	.	.	.
1c	Ohi-	2ryy	.	1g	Ohi-	1ryy	.	1ee	Ohi-	4ryy	.
.	.	.	.	.	.	.	.	.	.	4ryy	.
.	.	2.ryy	.	.	.	.	.	.	.	2.ryy	.
4A	-mè,	.	.	4f	-mè,	1ryy	.	4cc#X	-mè,	.	.
4A	quan-	2.ryy	.	4e	quan-	.	.	4cc#i	quan-	2.ryy	.
4A	-do	.	.	4e	-do	.	.	4cc#X	-do	.	.
4A	ti	.	.	4e	ti	.	.	4cc#i	ti	.	.
4.A	por-	2.ryy	.	4.e	por-	1ryy	.	4.cc#i	por-	2.ryy	.
8A	-to i	.	.	8e	-to i	.	.	8cc#i	-to i	.	.
4F#X	fior	.	.	4d	fior	.	.	4a	fior	.	.
4G	no-	2.ryy	.	4B	no-	.	.	4b	no-	2.ryy	.
2A	-vel-	.	.	2e	-vel-	1ryy	.	2cc#X	-vel-	.	.
2A	-li,	2.ryy	.	2e	-li,	.	.	2cc#i	-li,	2.ryy	.
4r	.	.	.	4r	.	4ryy	.	4r	.	.	.
=30-	=30-	=30-	=30-	=30-	=30-	=30-	=30-	=30-	=30-	=30-	=30-
4A	Tu	1%5r	.	4c	Tu	1%5r	.	4ee	Tu	1%5r	.
4B	li	.	.	4g	li	.	.	4dd	li	.	.
4c	ri-	.	.	4g	ri-	.	.	4ee	ri-	.	.
2d	-cu-	.	.	2a	-cu-	.	.	2ff	-cu-	.	.
4c	-si,	.	.	4g	-si,	.	.	4ee	-si,	.	.
2c	ri-	.	.	2g	ri-	.	.	2ee	ri-	.	.
4c	-tro-	.	.	4g	-tro-	.	.	4ee	-tro-	.	.
4A	-set-	.	.	4f#X	-set-	.	.	4cc#X	-set-	.	.
4c	-ta,	.	.	4g	-ta,	.	.	4ee	-ta,	.	.
2r	.	.	.	2r	.	.	.	2r	.	.	.
2d	for-	.	.	2f#i	for-	.	.	2dd	for-	.	.
4G	-se	.	.	4d	-se	.	.	4b	-se	.	.
4G	Per-	.	.	4d	Per-	.	.	4b	Per-	.	.
2G	-ché	.	.	2d	-ché	.	.	2b	-ché	.	.
4G	fior	.	.	4d	fior	.	.	4b	fior	.	.
=31-	=31-	=31-	=31-	=31-	=31-	=31-	=31-	=31-	=31-	=31-	=31-
4G	via	1ryy	.	4d	via	1ryy	.	4b	via	1ryy	.
4G	più	.	.	4d	più	.	.	4b	più	.	.
2G	bel-	.	.	2d	bel-	.	.	2b	bel-	.	.
4G	-li hai	1ryy	.	4d	-li hai	1ryy	.	4b	-li hai	1ryy	.
4F	nel	.	.	4A	nel	.	.	4cc	nel	.	.
4D	bel	.	.	4f	bel	.	.	4dd	bel	.	.
2A	vol-	.	.	2e	vol-	.	.	2cc#X	vol-	.	.
.	.	2.ryy	.	.	.	2.ryy	.	.	.	2.ryy	.
2D	-to.	.	.	2d	-to.	.	.	2dd	-to.	.	.
4ryy	.	1c	Ohi-	4ryy	.	1g	Ohi-	4ryy	.	1ee	Ohi-
1ryy	.	.	.	1ryy	.	.	.	1ryy	.	.	.
.	.	4A	-mé,	.	.	4f	-mé,	.	.	4cc#X	-mé,
=32-	=32-	=32-	=32-	=32-	=32-	=32-	=32-	=32-	=32-	=32-	=32-
1%5r	.	4A	quan-	1%5r	.	4e	quan-	1%5r	.	4cc#i	quan-
.	.	4A	-do io	.	.	4e	-do io	.	.	4cc#i	-do io
.	.	4A	ti	.	.	4e	ti	.	.	4cc#i	ti
.	.	4.A	por-	.	.	4.e	por-	.	.	4.cc#i	por-
.	.	8A	-go i	.	.	8e	-go i	.	.	8cc#i	-go i
.	.	4F#X	va-	.	.	4d	va-	.	.	4a	va-
.	.	4G	-ghi	.	.	4B	-ghi	.	.	4b	-ghi
.	.	2A	po-	.	.	2e	po-	.	.	2cc#X	po-
.	.	2A	-mi,	.	.	2e	-mi,	.	.	2cc#X	-mi,
.	.	4r	.	.	.	4r	.	.	.	4r	.
.	.	4A	Tu	.	.	4c	Tu	.	.	4ee	Tu
.	.	4B	li	.	.	4g	li	.	.	4dd	li
.	.	4c	ri-	.	.	4g	ri-	.	.	4ee	ri-
.	.	2d	-giu-	.	.	2a	-giu-	.	.	2ff	-giu-
.	.	4c	-ti,	.	.	4a	-ti,	.	.	4ee	-ti,
.	.	2c	di-	.	.	2g	di-	.	.	2ee	di-
=33-	=33-	=33-	=33-	=33-	=33-	=33-	=33-	=33-	=33-	=33-	=33-
00r	.	4c	-sde-	00r	.	4g	-sde-	00r	.	4ee	-sde-
.	.	4A	-gno-	.	.	4f#X	-gno-	.	.	4cc#X	-gno-
.	.	4c	-sa,	.	.	4g	-sa,	.	.	4ee	-sa,
.	.	2r	.	.	.	2r	.	.	.	2r	.
.	.	2d	for-	.	.	2fnXi	for-	.	.	2dd	for-
.	.	4G	-se,	.	.	4d	-se,	.	.	4b	-se,
.	.	4G	Per-	.	.	4d	Per-	.	.	4b	Per-
.	.	2G	-ché	.	.	2d	-ché	.	.	2b	-ché
.	.	4G	po-	.	.	4d	po-	.	.	4b	po-
.	.	4G	-mi	.	.	4d	-mi	.	.	4b	-mi
.	.	4G	più	.	.	4d	più	.	.	4b	più
.	.	2G	va-	.	.	2d	va-	.	.	2b	va-
=34-	=34-	=34-	=34-	=34-	=34-	=34-	=34-	=34-	=34-	=34-	=34-
1ryy	.	4d	-ghi hai	1ryy	.	4f	-ghi hai	1ryy	.	4a	-ghi hai
.	.	4c	nel	.	.	4g	nel	.	.	4cc	nel
.	.	4A	bel	.	.	4a	bel	.	.	4cc	bel
.	.	2e	se-	.	.	2g#X	se-	.	.	2b	se-
2.ryy	.	.	.	2.ryy	.	.	.	2.ryy	.	.	.
.	.	2A	-no.	.	.	2a	-no.	.	.	2a	-no.
1c	Ohi-	4ryy	.	1g	Ohi-	4ryy	.	1ee	Ohi-	4ryy	.
.	.	1ryy	.	.	.	1ryy	.	.	.	1ryy	.
4A	-mè,	.	.	4f	-mè,	.	.	4cc#X	-mè,	.	.
4A	quan-	1ryy	.	4e	quan-	1ryy	.	4cc#i	quan-	1ryy	.
4A	-d'io	.	.	4e	-d'io	.	.	4cc#i	-d'io	.	.
4A	t'of-	.	.	4e	t'of-	.	.	4cc#i	t'of-	.	.
4.A	-fri-	.	.	4.e	-fri-	.	.	4.cc#i	-fri-	.	.
.	.	1ryy	.	.	.	1ryy	.	.	.	1ryy	.
8A	-sco il	.	.	8e	-sco il	.	.	8cc#i	-sco il	.	.
4F	dol-	.	.	4d	dol-	.	.	4a	dol-	.	.
4G	-ce	.	.	4B	-ce	.	.	4b	-ce	.	.
2A	me-	.	.	2e	me-	.	.	2cc#X	me-	.	.
.	.	1ryy	.	.	.	1ryy	.	.	.	1ryy	.
2A	-le,	.	.	2e	-le,	.	.	2cc#i	-le,	.	.
4r	.	.	.	4r	.	.	.	4r	.	.	.
=35-	=35-	=35-	=35-	=35-	=35-	=35-	=35-	=35-	=35-	=35-	=35-
4A	Tu	1%5r	.	4c	Tu	1%5r	.	4ee	Tu	1%5r	.
4B	lo	.	.	4g	lo	.	.	4dd	lo	.	.
4c	di-	.	.	4g	di-	.	.	4ee	di-	.	.
2d	-sprez-	.	.	2a	-sprez-	.	.	2ff	-sprez-	.	.
4c	-zi,	.	.	4g	-zi,	.	.	4ee	-zi,	.	.
2c	di-	.	.	2g	di-	.	.	2ee	di-	.	.
4c	-spet-	.	.	4g	-spet-	.	.	4ee	-spet-	.	.
4A	-to-	.	.	4f#X	-to-	.	.	4cc#X	-to-	.	.
4c	-sa,	.	.	4g	-sa,	.	.	4ee	-sa,	.	.
2r	.	.	.	2r	.	.	.	2r	.	.	.
2d	for-	.	.	2fnXi	for-	.	.	2dd	for-	.	.
4G	-se	.	.	4d	-se	.	.	4b	-se	.	.
4G	Per-	.	.	4d	Per-	.	.	4b	Per-	.	.
2G	-ché	.	.	2d	-ché	.	.	2b	-ché	.	.
4G	mel	.	.	4d	mel	.	.	4b	mel	.	.
=36-	=36-	=36-	=36-	=36-	=36-	=36-	=36-	=36-	=36-	=36-	=36-
4G	via	1ryy	.	4d	via	1ryy	.	4b	via	1ryy	.
4G	più	.	.	4d	più	.	.	4b	più	.	.
2G	dol-	.	.	2d	dol-	.	.	2b	dol-	.	.
4G	-ce hai	1ryy	.	4d	-ce hai	1ryy	.	4b	-ce hai	1ryy	.
4F	ne	.	.	4A	ne	.	.	4cc	ne	.	.
4D	le	.	.	4f	le	.	.	4dd	le	.	.
2A	lab-	.	.	2e	lab-	.	.	2cc#X	lab-	.	.
.	.	2.ryy	.	.	.	2.ryy	.	.	.	2.ryy	.
2D	-bra.	.	.	2d	-ra.	.	.	2dd	-bra.	.	.
4r	.	4r	.	4r	.	4r	.	4r	.	4r	.
4F	Ma	4c	Ma	4f	Ma	4a	Ma	4ccnXi	Ma	4ff	Ma
4.F	se	4.c	se	4.f	se	4.a	se	4.cc	se	4.ff	se
8F	mia	8c	mia	8f	mia	8a	mia	8cc	mia	8ff	mia
4F	po-	4c	po-	4f	po-	4.a	po-	4cc	po-	4ff	po-
4F	-ver-	4c	-ver-	4f	-ver-	.	.	4cc	-ver-	4ff	-ver-
.	.	.	.	.	.	8a	-ver-	.	.	.	.
4.F	-tà	4.c	-tà	4.f	-tà	4a	-tà	4.cc	-tà	4.ff	-tà
.	.	.	.	.	.	4a	non	.	.	.	.
8F	non	8c	non	8f	non	.	.	8cc	non	8ff	non
4.c	può	4c	può	4.g	può	4.g	può	4.cc	può	4ee	può
.	.	4c	do-	.	.	.	.	.	.	4ee	do-
8c	do-	.	.	8e	do-	8g	do-	8cc	do-	.	.
2c	-nar-	2c	-nar-	2e	-nar-	2g	-nar-	2cc	-nar-	2ee	-nar-
2c	-ti	2c	-ti	2e	-ti	2g	-ti	2cc	-ti	2ee	-ti
4G	Co-	4ryy	.	4B	Co-	4g	Co-	4b	Co-	4dd	Co-
8GL	-sa	2ryy	.	8dL	-sa	8gL	-sa	8bL	-sa	8ddL	-sa
8GJ	ch'in	.	.	8dJ	ch'in	8gJ	ch'in	8bJ	ch'in	8ddJ	ch'in
4G	te	.	.	4d	te	4g	te	4b	te	4dd	te
4G	più	1ryy	.	4d	più	4g	più	4b	più	4dd	più
4c	bel-	.	.	4c	bel-	4g	bel-	4cc	bel-	4ee	bel-
4G	-la e	.	.	4d	-la e	4g	-la e	4b	-la e	4dd	-la e
4c	dol-	.	.	4c	dol-	4g	dol-	4cc	dol-	4ee	dol-
=37-	=37-	=37-	=37-	=37-	=37-	=37-	=37-	=37-	=37-	=37-	=37-
8cL	-ce	4%17r	.	8cL	-ce	8gL	-ce	8ccL	-ce	8eeL	-ce
8cJ	non	.	.	8cJ	non	8gJ	non	8ccJ	non	8eeJ	non
4.G	si-	.	.	4.d	si-	4.g	si-	4.b	si-	4.dd	si-
8G	-a,	.	.	8d	-a,	8g	-a,	8b	-a,	8dd	-a,
2r	.	.	.	2r	.	4ryy	.	2r	.	2r	.
.	.	.	.	.	.	1ryy	.	.	.	.	.
1E	Me	.	.	1e	Me	.	.	1g#X	Me	1b	Me
.	.	.	.	.	.	1ryy	.	.	.	.	.
2F	me-	.	.	2c	me-	.	.	2a	me-	2a	me-
1.G	-de-	.	.	1.g	-de-	.	.	1.b	-de-	1.dd	-de-
.	.	.	.	.	.	1ryy	.	.	.	.	.
.	.	.	.	.	.	4ryy	.	.	.	.	.
=38-	=38-	=38-	=38-	=38-	=38-	=38-	=38-	=38-	=38-	=38-	=38-
4D	-smo	1ryy	.	4f#X	-smo	2.ryy	.	4a	-smo	4dd	-smo
4D	ti	.	.	4f#X	ti	.	.	4a	ti	4dd	ti
2D	do-	.	.	2f#i	do-	.	.	2a	do-	2a	do-
.	.	.	.	.	.	2.ryy	.	.	.	.	.
2D	-no.	2ryy	.	2f#i	-no.	.	.	2a	-no.	2a	-no.
2.ryy	.	4r	.	4ryy	.	4r	.	2.r	.	4r	.
.	.	4d	Or	1ryy	.	4a	Or	.	.	4dd	Or
.	.	4d	per-	.	.	4a	per-	.	.	4ff	per-
2.ryy	.	4d	-ché i-	.	.	4a	-ché i-	2.r	.	4ff	-ché i-
.	.	4d	-ni-	.	.	4a	-ni-	.	.	4ff	-ni-
.	.	4c	-qua,	1ryy	.	4a	-qua,	.	.	4ee	-qua,
2.ryy	.	2.d	Scher-	.	.	2.a	Scher-	2.r	.	2.ff	Scher-
=39-	=39-	=39-	=39-	=39-	=39-	=39-	=39-	=39-	=39-	=39-	=39-
1%6r	.	4c	-ni e ab-	1%6r	.	4a	-ni e ab-	1%6r	.	4ee	-ni e ab-
.	.	4d	-bor-	.	.	4a	-bor-	.	.	4ff	-bor-
.	.	4d	-ri il	.	.	4a	-ri il	.	.	4ff	-ri il
.	.	2B	do-	.	.	2g	do-	.	.	2dd	do-
.	.	2d	-no?	.	.	2a	-no?	.	.	2ff	-no?
.	.	4r	.	.	.	4r	.	.	.	4r	.
.	.	4c	Non	.	.	4e	Non	.	.	4ee	Non
.	.	4c	so-	.	.	4g	so-	.	.	4ee	so-
.	.	4c	-no io	.	.	4g	-no io	.	.	4ee	-no io
.	.	4c	brut-	.	.	4g	brut-	.	.	4ee	brut-
.	.	4B	-to,	.	.	4d	-to,	.	.	4dd	-to,
.	.	2c	no,	.	.	2g	no,	.	.	2ee	no,
.	.	4r	.	.	.	4r	.	.	.	4r	.
.	.	4d	né	.	.	4f	né	.	.	4dd	né
.	.	4A	tu	.	.	4e	tu	.	.	4cc	tu
.	.	4A	mi	.	.	4e	mi	.	.	4cc	mi
.	.	2A	sprez-	.	.	2e	sprez-	.	.	2cc	sprez-
.	.	4A	-zi	.	.	4e	-zi	.	.	4cc	-zi
.	.	4A	Per-	.	.	4e	Per-	.	.	4cc	Per-
.	.	4A	-ché	.	.	4e	-ché	.	.	4cc	-ché
=40-	=40-	=40-	=40-	=40-	=40-	=40-	=40-	=40-	=40-	=40-	=40-
00r	.	4A	si	00r	.	4e	si	00r	.	4cc	si
.	.	4F	fat-	.	.	4d	fat-	.	.	4a	fat-
.	.	4G	-to io	.	.	4B	-to io	.	.	4b	-to io
.	.	2A	si-	.	.	2e	si-	.	.	2cc	si-
.	.	2A	-a,	.	.	2e	-a,	.	.	2cc	-a,
.	.	4r	.	.	.	4r	.	.	.	4r	.
.	.	4c	ma	.	.	4e	ma	.	.	4cc	ma
.	.	4c	so-	.	.	4g	so-	.	.	4ee	so-
.	.	4c	-la-	.	.	4g	-la-	.	.	4ee	-la-
.	.	2c	-men-	.	.	2g	-men-	.	.	2ee	-men-
.	.	4c	-te	.	.	4g	-te	.	.	4ee	-te
.	.	4A	Per-	.	.	4a	Per-	.	.	4ee	Per-
.	.	4d	-ché	.	.	4a	-ché	.	.	4ff	-ché
=41-	=41-	=41-	=41-	=41-	=41-	=41-	=41-	=41-	=41-	=41-	=41-
1ryy	.	4.d	po-	1ryy	.	4.a	po-	1ryy	.	4.ff	po-
.	.	8d	-ve-	.	.	8a	-ve-	.	.	8ff	-ve-
.	.	4d	-ro	.	.	4a	-ro	.	.	4ff	-ro
.	.	2e	so-	.	.	2g#X	so-	.	.	2ee	so-
2.ryy	.	.	.	2.ryy	.	.	.	2.ryy	.	.	.
.	.	2d	-no:	.	.	2a	-no:	.	.	2ff	-no:
2.c	Ahi,	2.c	Ahi,	2.e	Ahi,	2.gnXi	Ahi,	2.ee	Ahi,	2.gg	Ahi,
8FL	ché	8cL	ché	8fL	ché	8aL	ché	8ccL	ché	8ffL	ché
8FJ	le	8cJ	le	8fJ	le	8aJ	le	8ccJ	le	8ffJ	le
2F	vil-	2c	vil-	2f	vil-	2a	vil-	2cc	vil-	2ff	vil-
2F	-le	2c	-le	2f	-le	2a	-le	2cc	-le	2ff	-le
4r	.	4r	.	4r	.	4r	.	4r	.	4r	.
=42-	=42-	=42-	=42-	=42-	=42-	=42-	=42-	=42-	=42-	=42-	=42-
4F	Se-	4c	Se-	4f	Se-	4a	Se-	4cc	Se-	4ff	Se-
4F	-guon	4c	-guon	4f	-guon	4a	-guon	4cc	-guon	4ff	-guon
4F	l'es-	4c	l'es-	4f	l'es-	4a	l'es-	4cc	l'es-	4ff	l'es-
2F	-sem-	2c	-sem-	2f	-sem-	2a	-sem-	2cc	-sem-	2ff	-sem-
2C	-pio	2c	-pio	2g	-pio	2g	-pio	2cc	-pio	2ee	-pio
8GL	de	8dL	de	8dL	de	8gL	de	8bL	de	8ddL	de
8GJ	le	8BJ	le	8dJ	le	8gJ	le	8bJ	le	8ddJ	le
=43-	=43-	=43-	=43-	=43-	=43-	=43-	=43-	=43-	=43-	=43-	=43-
2G	gran	2d	gran	2d	gran	2g	gran	2b	gran	2dd	gran
4G	cit-	4G	cit-	4d	cit-	4g	cit-	4b	cit-	4dd	cit-
2D	-ta-	2A	-ta-	2d	-ta-	2f#X	-ta-	2a	-ta-	2dd	-ta-
2G	-di;	2G	-di;	2d	-di;	2g	-di;	2b	-di;	2dd	-di;
4r	.	4r	.	4r	.	4r	.	4r	.	4r	.
=44-	=44-	=44-	=44-	=44-	=44-	=44-	=44-	=44-	=44-	=44-	=44-
4B-X	E	4d	E	4d	E	4f	E	4dd	E	4ff	E
4B-i	ve-	4d	ve-	4f	ve-	4b-X	ve-	4dd	ve-	4ff	ve-
4B-i	-ra-	4d	-ra-	4f	-ra-	4b-X	-ra-	4dd	-ra-	4ff	-ra-
4.B-i	-men-	4.d	-men-	4.f	-men-	4.b-X	-men-	4.dd	-men-	4.ff	-men-
8F	-te il	8f	-te il	8f	-te il	8a	-te il	8cc	-te il	8ff	-te il
4.B-i	se-	4.d	se-	4.f	se-	4.b-X	se-	4.dd	se-	4.ff	se-
8B-i	-col	8d	-col	8f	-col	8b-X	-col	8dd	-col	8ff	-col
4.B-i	d'o-	4.d	d'o-	4f	d'o-	4.b-X	d'o-	4.dd	d'o-	4.ff	d'o-
.	.	.	.	4f	-ro è	.	.	.	.	.	.
8F	-ro è	8f	-ro è	.	.	8a	-ro è	8cc	-ro è	8ff	-ro è
4.B-i	que-	4.d	que-	4.f	que-	4.b-X	que-	4.dd	que-	4.ff	que-
8B-i	-sto	8d	-sto	8f	-sto	8b-X	-sto	8dd	-sto	8ff	-sto
2r	.	2r	.	2r	.	2r	.	2r	.	2r	.
1c	Poi-	1c	Poi-	1e	Poi-	1g	Poi-	1cc	Poi-	1ee	Poi
4G	-ché	4B	-ché	4d	-ché	4bnX	-ché	4dd	-ché	4gg	ché
4G	sol	4d	sol	4g	sol	4b	sol	4dd	sol	4gg	sol
4G	vin-	4d	vin-	4g	vin-	4b	vin-	4dd	vin-	4gg	vin-
=45-	=45-	=45-	=45-	=45-	=45-	=45-	=45-	=45-	=45-	=45-	=45-
4G	-ce	4d	-ce	4g	-ce	4b	-ce	4dd	-ce	4gg	-ce
2.G	l'o-	2.d	l'o-	2.g	l'o-	2.b	l'o-	2.dd	l'o-	2.gg	l'o-
4G	-ro e	4d	-ro e	4g	-ro e	4b	-ro e	4dd	-ro e	4gg	-ro e
2D	re-	2d	re-	2f	re-	2a	re-	2dd	re-	2aa	re-
2D	-gna	2A	-gna	2d	-gna	2a	-gna	2dd	-gna	2ff	-gna
1A	l'o-	1A	l'o-	1e	l'o-	1a	l'o-	1cc#X	l'o-	1ee	l'o-
2D	-ro,	2A	-ro,	2f	-ro,	2a	-ro,	1dd	-ro,	2dd	-ro,
2r	.	4ryy	.	2r	.	4ryy	.	.	.	2ryy	.
.	.	1ryy	.	.	.	1ryy	.	.	.	.	.
2d	O	.	.	2a	O	.	.	2ff	O	4ryy	.
.	.	.	.	.	.	.	.	.	.	2ryy	.
4c	chiun-	.	.	4e	chiun-	.	.	4ee	chiun-	.	.
=46-	=46-	=46-	=46-	=46-	=46-	=46-	=46-	=46-	=46-	=46-	=46-
8cL	-que	00r	.	8gL	-que	00r	.	8eeL	-que	00r	.
8cJ	tu	.	.	8gJ	tu	.	.	8eeJ	tu	.	.
4c	fo-	.	.	4g	fo-	.	.	4ee	fo-	.	.
4c	-sti,	.	.	4g	-sti,	.	.	4ee	-sti,	.	.
4A	che in-	.	.	4f	che in-	.	.	4cc	che in-	.	.
4B	-se-	.	.	4d	-se-	.	.	4dd	-se-	.	.
4c	-gna-	.	.	4g	-gna-	.	.	4ee	-gna-	.	.
4c	-sti	.	.	4g	-sti	.	.	4ee	-sti	.	.
2c	pri-	.	.	2g	pri-	.	.	2ee	pri-	.	.
2A	-mo a	.	.	2a	-mo a	.	.	2cc	-mo a	.	.
2c	ven-	.	.	2g	ven-	.	.	2ee	ven-	.	.
4c	-der	.	.	4g	-der	.	.	4ee	-der	.	.
4d	l'a-	.	.	4f	l'a-	.	.	4ff	l'a-	.	.
4A	-mor,	.	.	4a	-mor,	.	.	4ee	-mor,	.	.
=47-	=47-	=47-	=47-	=47-	=47-	=47-	=47-	=47-	=47-	=47-	=47-
4B-X	sia	1ryy	.	4f	sia	1ryy	.	4dd	sia	1ryy	.
4B-i	ma-	.	.	4f	ma-	.	.	4dd	ma-	.	.
4B-i	-le-	.	.	4d	-le-	.	.	4dd	-le-	.	.
2A	-det-	.	.	2e	-det-	.	.	2cc#X	-det-	.	.
.	.	2.ryy	.	.	.	2.ryy	.	.	.	2.ryy	.
2D	-to.	.	.	2d	-to.	.	.	2dd	-to.	.	.
4ryy	.	2d	Tu	4ryy	.	2f	Tu	4ryy	.	2dd	Tu
1ryy	.	.	.	1ryy	.	.	.	1ryy	.	.	.
.	.	4.G	pri-	.	.	4.d	pri-	.	.	4.b	pri-
.	.	8G	-ma	.	.	8d	-ma	.	.	8b	-ma
.	.	4G	sver-	.	.	4d	sver-	.	.	4b	sver-
1ryy	.	4G	-go-	1ryy	.	4d	-go-	1ryy	.	4b	-go-
.	.	2G	-gna-	.	.	2d	-gna-	.	.	2b	-gna-
.	.	4G	-sti	.	.	4d	-sti	.	.	4b	-sti
1ryy	.	4c	La	1ryy	.	4e	La	1ryy	.	4cc	La
.	.	4c	no-	.	.	4g	no-	.	.	4ee	no-
.	.	4c	-bil-	.	.	4g	-bil-	.	.	4ee	-bil-
.	.	4B-X	-tà	.	.	4g	-tà	.	.	4dd	-tà
=48-	=48-	=48-	=48-	=48-	=48-	=48-	=48-	=48-	=48-	=48-	=48-
1ryy	.	4G	d'a-	1ryy	.	4g	d'a-	1ryy	.	4dd	d'a-
.	.	2A	-mo-	.	.	2e	-mo-	.	.	2cc	-mo-
.	.	2G	-re.	.	.	2g	-re.	.	.	2b	-re.
4ryy	.	.	.	4ryy	.	.	.	4ryy	.	.	.
2d	Tu	4ryy	.	2f	Tu	4ryy	.	2dd	Tu	4ryy	.
.	.	2ryy	.	.	.	2ryy	.	.	.	2ryy	.
4G	le	.	.	4d	le	.	.	4b	le	.	.
4G	sue	1ryy	.	4e	sue	1ryy	.	4b	sue	1ryy	.
4.A	lie-	.	.	4.e	lie-	.	.	4.cc#X	lie-	.	.
8A	-te	.	.	8f	-te	.	.	8cc#i	-te	.	.
4d	Dol-	.	.	4f	Dol-	.	.	4dd	Dol-	.	.
2c	-cez-	1ryy	.	2g	-cez-	1ryy	.	2ee	-cez-	1ryy	.
4c	-zi i-	.	.	4g	-zi i-	.	.	4ee	-zi i-	.	.
4B-X	-na-	.	.	4g	-na-	.	.	4dd	-na-	.	.
4G	-ma-	1ryy	.	4g	-ma-	1ryy	.	4dd	-ma-	1ryy	.
2A	-ri-	.	.	2e	-ri-	.	.	2ccnXi	-ri-	.	.
2G	-sti.	.	.	2g	-sti.	.	.	2b	-sti.	.	.
.	.	4ryy	.	.	.	4ryy	.	.	.	4ryy	.
4r	.	4r	.	4r	.	4r	.	4r	.	4r	.
2r	.	4c	A-	2r	.	4g	A-	2r	.	4ee	A-
.	.	4c	-mor	.	.	4g	-mor	.	.	4ee	-mor
=49-	=49-	=49-	=49-	=49-	=49-	=49-	=49-	=49-	=49-	=49-	=49-
1ryy	.	4A	ve-	1ryy	.	4a	ve-	1ryy	.	4cc	ve-
.	.	2c	-na-	.	.	2g	-na-	.	.	2ee	-na-
.	.	4c	-le,	.	.	4g	-le,	.	.	4ee	-le,
1ryy	.	4c	A-	1ryy	.	4g	A-	1ryy	.	4ee	A-
.	.	4c	-mor	.	.	4g	-mor	.	.	4ee	-mor
.	.	4c	ser-	.	.	4g	ser-	.	.	4ee	ser-
.	.	4A	-vo	.	.	4a	-vo	.	.	4cc	-vo
1ryy	.	4B	de	1ryy	.	4g	de	1ryy	.	4dd	de
.	.	4c	l'o-	.	.	4g	l'o-	.	.	4ee	l'o-
.	.	4c	-ro è'l	.	.	4a	-ro è'l	.	.	4ee	-ro è'l
.	.	4d	mag-	.	.	4a	mag-	.	.	4ff	mag-
1ryy	.	4A	-gior	1ryy	.	4a	-gior	1ryy	.	4ff	-gior
.	.	2c	mo-	.	.	2g	mo-	.	.	2ee	mo-
.	.	2c	-stro,	.	.	2g	-stro,	.	.	2ee	-stro,
4ryy	.	.	.	4ryy	.	.	.	4ryy	.	.	.
4r	.	4ryy	.	4r	.	4ryy	.	4r	.	4ryy	.
4c	Ed	2ryy	.	4g	Ed	2ryy	.	4ee	Ed	2ryy	.
4c	il	.	.	4g	il	.	.	4ee	il	.	.
=50-	=50-	=50-	=50-	=50-	=50-	=50-	=50-	=50-	=50-	=50-	=50-
4c	più a-	1ryy	.	4g	più a-	4ryy	.	4ee	più a-	1ryy	.
4A	-bo-	.	.	4a	-bo-	1ryy	.	4cc	-bo-	.	.
4B	-mi-	.	.	4g	-mi-	.	.	4dd	-mi-	.	.
4c	-na-	.	.	4g	-na-	.	.	4ee	-na-	.	.
4c	-bi-	2ryy	.	4a	-bi-	.	.	4ee	-bi-	4ryy	.
4d	-le e il	.	.	4a	-le e il	1ryy	.	4ff	-le e il	4ryy	.
4A	più	2.ryy	.	4a	più	.	.	4ff	più	2.ryy	.
2c	soz-	.	.	2g	soz-	.	.	2ee	soz-	.	.
2c	-zo	2ryy	.	2g	-zo	2ryy	.	2ee	-zo	2ryy	.
4.F	Che	4.c	Che	4.f	Che	4.a	Che	4.cc	Che	4.ff	Che
8F	pro-	8c	pro-	8f	pro-	8a	pro-	8cc	pro-	8ff	pro-
2F	-du-	2c	-du-	2f	-du-	2a	-du-	2cc	-du-	2ff	-du-
4F	-ca	4c	-ca	4f	-ca	4a	-ca	4cc	-ca	4ff	-ca
4F	la	4c	la	4f	la	4a	la	4cc	la	4ff	la
4F	ter-	4c	ter-	4f	ter-	4a	ter-	4cc	ter-	4ff	ter-
4C	-ra o'l	4c	-ra o'l	4e	-ra o'l	4g	-ra o'l	4b	-ra o'l	4gg	-ra o'l
4G	mar	4B	mar	4d	mar	4g	mar	4dd	mar	4gg	mar
4D	fra	4A	fra	4d	fra	4a	fra	4dd	fra	4ff	fra
=51-	=51-	=51-	=51-	=51-	=51-	=51-	=51-	=51-	=51-	=51-	=51-
2A	l'on-	2A	l'on-	2e	l'on-	2a	l'on-	2cc#X	l'on-	2ee	l'on-
2D	-de.	2A	-de.	2f	-de.	2a	-de.	2dd	-de.	2dd	-de.
1ryy	.	4A	Ma	1ryy	.	4a	Ma	1ryy	.	4cc	Ma
.	.	4d	per-	.	.	4f	per-	.	.	4dd	per-
.	.	4c	-ché in	.	.	4g	-ché in	.	.	4ee	-ché in
.	.	8cL	van	.	.	8gL	van	.	.	8eeL	van
.	.	8cJ	mi	.	.	8gJ	mi	.	.	8eeJ	mi
1ryy	.	4A	la-	1ryy	.	4f#X	la-	1ryy	.	4cc#X	la-
.	.	4c	-gno?	.	.	4g	-gno?	.	.	4ee	-gno?
.	.	4r	.	.	.	4r	.	.	.	4r	.
.	.	4.c	U-	.	.	4.g	U-	.	.	4.ee	U-
1ryy	.	.	.	1ryy	.	.	.	1ryy	.	.	.
.	.	8c	-sa	.	.	8g	-sa	.	.	8ee	-sa
.	.	4G	cia-	.	.	4g	cia-	.	.	4dd	cia-
.	.	4c	-scun	.	.	4g	-scun	.	.	4ee	-scun
.	.	4c	Quel-	.	.	4g	Quel-	.	.	4ee	Quel-
1ryy	.	2c	-l'ar-	1ryy	.	2g	-l'ar-	1ryy	.	2ee	-l'ar-
.	.	2c	-mi	.	.	2g	-mi	.	.	2ee	-mi
=52-	=52-	=52-	=52-	=52-	=52-	=52-	=52-	=52-	=52-	=52-	=52-
1ryy	.	4A	che	1ryy	.	4a	che	1ryy	.	4ee	che
.	.	4d	gli ha	.	.	4f	gli ha	.	.	4ff	gli ha
.	.	4.c	da-	.	.	4.g	da-	.	.	4.ee	da-
.	.	8c	-te	.	.	8g	-te	.	.	8ee	-te
1ryy	.	4c	la	1ryy	.	4g	la	1ryy	.	4ee	la
.	.	4d	na-	.	.	4f	na-	.	.	4dd	na-
.	.	2A	-tu-	.	.	2e	-tu-	.	.	2cc#X	-tu-
1ryy	.	4A	-ra	1ryy	.	4a	-ra	1ryy	.	4cc#i	-ra
.	.	4c	per	.	.	4g	per	.	.	4ee	per
.	.	4B	sua	.	.	4g	sua	.	.	4dd	sua
.	.	4c	sa-	.	.	4a	sa-	.	.	4ee	sa-
1ryy	.	2d	-lu-	1ryy	.	2.a	-lu-	1ryy	.	2ff	-lu-
.	.	2c	-te:	.	.	.	.	.	.	2ee	-te:
.	.	.	.	.	.	4g	-te:	.	.	.	.
2c	il	1ryy	.	2g	il	1ryy	.	2ee	il	1ryy	.
4c	cer-	.	.	4g	cer-	.	.	4ee	cer-	.	.
4c	-vo a-	.	.	4g	-vo a-	.	.	4ee	-vo a-	.	.
=53-	=53-	=53-	=53-	=53-	=53-	=53-	=53-	=53-	=53-	=53-	=53-
4A	-do-	1ryy	.	4a	-do-	1ryy	.	4cc	-do-	1ryy	.
4c#X	-pra il	.	.	4a	-pra il	.	.	4ee	-pra il	.	.
2d	cor-	.	.	2.a	cor-	.	.	2ff	cor-	.	.
2cnXi	-so,	2ryy	.	.	.	2ryy	.	2ee	-so,	2ryy	.
.	.	.	.	4g	-so,	.	.	.	.	.	.
2ryy	.	4c	Il	2ryy	.	4g	Il	2ryy	.	4ee	Il
.	.	4c	le-	.	.	4g	le-	.	.	4ee	le-
1ryy	.	4A	-on	1ryy	.	4f#X	-on	1ryy	.	4cc	-on
.	.	4c	gli ar-	.	.	4a	gli ar-	.	.	4ee	gli ar-
.	.	2d	-ti-	.	.	2.a	-ti-	.	.	2ff	-ti-
2ryy	.	2c	-gli,	2ryy	.	.	.	2ryy	.	2ee	-gli,
.	.	.	.	.	.	4g	-gli,	.	.	.	.
2c	ed	2ryy	.	2g	ed	2ryy	.	2ee	ed	2ryy	.
4c	il	1ryy	.	4g	il	1ryy	.	4ee	il	1ryy	.
4c	ba-	.	.	4g	ba-	.	.	4ee	ba-	.	.
4c	-vo-	.	.	4g	-vo-	.	.	4ee	-vo-	.	.
8cL	-so	.	.	8gL	-so	.	.	8eeL	-so	.	.
8cJ	Cin-	.	.	8gJ	Cin-	.	.	8eeJ	Cin-	.	.
=54-	=54-	=54-	=54-	=54-	=54-	=54-	=54-	=54-	=54-	=54-	=54-
4A	-ghia-	1ryy	.	4f	-ghia-	1ryy	.	4cc	-ghia-	1ryy	.
4c	-le il	.	.	4a	-le il	.	.	4ee	-le il	.	.
2d	den-	.	.	2.a	den-	.	.	2ff	den-	.	.
2c	.	2ryy	.	.	.	2ryy	.	2ee	.	2ryy	.
.	.	.	.	4g	.	.	.	.	.	.	.
1d	-te; e	1d	e	1d	-te; e	1a	e	1ff	-te; e	1aa	e
4G	son	4d	son	4g	son	4b	son	4dd	son	4gg	son
4G	po-	4d	po-	4g	po-	4b	po-	4dd	po-	4gg	po-
4.G	-ten-	4.d	-ten-	4.g	-ten-	4.b	-ten-	4.dd	-ten-	4.gg	-ten-
8G	-za ed	8d	-za ed	8g	-za ed	8b	-za ed	8dd	-za ed	8gg	-za ed
2c	ar-	2c	ar-	2g	ar-	2cc	ar-	2ee	ar-	2gg	ar-
2c	-mi	2c	-mi	2e	-mi	2cc	-mi	2ee	-mi	2gg	-mi
4F	De	4c	De	4f	De	4a	De	4cc	De	4ff	De
4F	la	4c	la	4f	la	4a	la	4cc	la	4ff	la
=55-	=55-	=55-	=55-	=55-	=55-	=55-	=55-	=55-	=55-	=55-	=55-
2F	don-	2c	don-	2f	don-	2a	don-	2cc	don-	2ff	don-
4F	-na	4A	-na	4f	-na	4a	-na	4cc	-na	4ff	-na
4B-X	bel-	4d	bel-	4f	bel-	4b-X	bel-	4dd	bel-	4ff	bel-
2B-i	-lez-	2d	-lez-	2f	-lez-	2b-i	-lez-	2dd	-lez-	2ff	-lez-
1d	-za e	1d	-za e	1a	-za e	1a	-za e	1dd	-za e	1ff	-za e
4A	leg-	4e	leg-	4A	leg-	4a	leg-	4cc#X	leg-	4ee	leg-
4A	-gia-	4A	-gia-	4e	-gia-	4a	-gia-	4cc#i	-gia-	4ee	-gia-
1A	-dri-	1A	-dri-	1e	-dri-	1a	-dri-	1cc#i	-dri-	1ee	-dri-
1D	-a.	2A	-a.	1f	-a.	1a	-a.	1dd	-a.	2dd	-a.
.	.	2r	.	.	.	.	.	.	.	2r	.
=56-	=56-	=56-	=56-	=56-	=56-	=56-	=56-	=56-	=56-	=56-	=56-
1%5r	.	4A	Io	1%5r	.	4e	Io	1%5r	.	4cc#X	Io
.	.	4d	per-	.	.	4f#X	per-	.	.	4dd	per-
.	.	2c	-ché	.	.	2g	-ché	.	.	2ee	-ché
.	.	8cL	non	.	.	8gL	non	.	.	8eeL	non
.	.	8c	per	.	.	8g	per	.	.	8ee	per
.	.	8c	mia	.	.	8g	mia	.	.	8ee	mia
.	.	8cJ	sa-	.	.	8gJ	sa-	.	.	8eeJ	sa-
.	.	4.c	-lu-	.	.	4.g	-lu-	.	.	4.ee	-lu-
.	.	8A	-te a-	.	.	8a	-te a-	.	.	8cc#X	-te a-
.	.	2c	-do-	.	.	2g	-do-	.	.	2ee	-do-
.	.	8cL	-pro	.	.	8gL	-pro	.	.	8eeL	-pro
.	.	8c	La	.	.	8g	La	.	.	8ee	La
.	.	8A	vi-	.	.	8a	vi-	.	.	8ccnXi	vi-
.	.	8cJ	-o-	.	.	8gJ	-o-	.	.	8eeJ	-o-
.	.	4B	-len-	.	.	4g	-len-	.	.	4dd#X	-len-
.	.	4c	-za,	.	.	4g	-za,	.	.	4ee	-za,
.	.	8AL	se	.	.	8eL	se	.	.	8ccL	se
.	.	8A	mi	.	.	8e	mi	.	.	8cc	mi
.	.	8A	fé	.	.	8e	fé	.	.	8cc	fé
.	.	8AJ	na-	.	.	8eJ	na-	.	.	8ccJ	na-
.	.	4A	-tu-	.	.	4e	-tu-	.	.	4cc	-tu-
.	.	4A	-ra	.	.	4e	-ra	.	.	4cc	-ra
.	.	2r	.	.	.	2r	.	.	.	2r	.
=57-	=57-	=57-	=57-	=57-	=57-	=57-	=57-	=57-	=57-	=57-	=57-
1ryy	.	4.c	At-	1ryy	.	4.g	At-	1ryy	.	4.ee	At-
.	.	8A	-to a	.	.	8f	-to a	.	.	8cc	-to a
.	.	4c	far	.	.	4g	far	.	.	4ee	far
.	.	8AL	vi-	.	.	8aL	vi-	.	.	8ccL	vi-
.	.	8BJ	-o-	.	.	8gJ	-o-	.	.	8ddJ	-o-
1ryy	.	2c	-len-	1ryy	.	2g	-len-	1ryy	.	2ee	-len-
.	.	4c	-za ed	.	.	4g	-za ed	.	.	4ee	-za ed
.	.	8AL	a	.	.	8fL	a	.	.	8ccL	a
.	.	8cJ	ra-	.	.	8gJ	ra-	.	.	8eeJ	ra-
2ryy	.	4B	-pi-	2ryy	.	4g	-pi-	2ryy	.	4dd#X	-pi-
.	.	4c	-re?	.	.	4g	-re?	.	.	4ee	-re?
4.c	Sfor-	2ryy	.	4.g	Sfor-	2ryy	.	4.ee	Sfor-	2ryy	.
8A	-ze-	.	.	8f	-ze-	.	.	8cc	-ze-	.	.
4c	-rò,	1ryy	.	4g	-rò,	1ryy	.	4ee	-rò,	1ryy	.
8cL	ra-	.	.	8gL	ra-	.	.	8eeL	ra-	.	.
8BJ	-pi-	.	.	8gJ	-pi-	.	.	8ddJ	-pi-	.	.
4c	-rò	.	.	4g	-rò	.	.	4ee	-rò	.	.
4d	quel	.	.	4f	quel	.	.	4ff	quel	.	.
4c	che	1ryy	.	4g	che	1ryy	.	4ee	che	1ryy	.
4B	co-	.	.	4g	co-	.	.	4dd	co-	.	.
2c	-ste-	.	.	2g	-ste-	.	.	2ee	-ste-	.	.
=58-	=58-	=58-	=58-	=58-	=58-	=58-	=58-	=58-	=58-	=58-	=58-
2c	-i	1.ryy	.	2g	-i	1ryy	.	2ee	-i	1ryy	.
4r	.	.	.	4r	.	.	.	4r	.	.	.
4d	Mi	.	.	4d	Mi	.	.	4ff	Mi	.	.
4d	nie-	.	.	4a	nie-	1ryy	.	4ff	nie-	1ryy	.
4e	-ga, in-	.	.	4g	-ga, in-	.	.	4ee	-ga, in-	.	.
4.c	-gra-	2.ryy	.	4.g	-gra-	.	.	4.ee	-gra-	.	.
8c	-ta, in	.	.	8g	-ta, in	.	.	8ee	-ta, in	.	.
4.c	mer-	.	.	4.g	mer-	1ryy	.	4.ee	mer-	1ryy	.
.	.	2.ryy	.	.	.	.	.	.	.	.	.
8c	-to	.	.	8g	-to	.	.	8ee	-to	.	.
4B	de	.	.	4g	de	.	.	4dd	de	.	.
4d	l'A-	.	.	4g	l'A-	.	.	4b	l'A-	.	.
2d	-mo-	2.ryy	.	2f#i	-mo-	2.ryy	.	2a	-mo-	2.ryy	.
2G	-re:	.	.	2g	-re:	.	.	2b	-re:	.	.
.	.	4ryy	.	.	.	4ryy	.	.	.	4ryy	.
1.A	Pian-	1.e	Pian-	1ryy	.	1.a	Pian-	1.cc	Pian-	1.ee	Pian-
.	.	.	.	2.ryy	.	.	.	.	.	.	.
4E	-ga e	4e	-ga e	.	.	4g	-ga e	4b	-ga e	4ee	-ga e
=59-	=59-	=59-	=59-	=59-	=59-	=59-	=59-	=59-	=59-	=59-	=59-
4c	so-	4e	so-	1ryy	.	4g	so-	4cc	so-	4gg	so-
2c	-spi-	2e	-spi-	.	.	2g	-spi-	2cc	-spi-	2gg	-spi-
4r	.	4r	.	.	.	4r	.	4r	.	4r	.
4c	-ri	4c	-ri	1ryy	.	4g	-ri	4cc	-ri	4ee	-ri
2.G	pur,	2.d	pur,	.	.	2.g	pur,	2.b	pur,	2dd	pur,
.	.	.	.	.	.	.	.	.	.	4r	.
4G	u-	4d	u-	4g	u-	4g	u-	4b	u-	4dd	u-
4G	-si o-	4g	-si o-	4g	-si o-	4b	-si o-	4dd	-si o-	4gg	-si o-
4G	-gni	4g	-gni	4b	-gni	4dd	-gni	4dd	-gni	4gg	-gni
=60-	=60-	=60-	=60-	=60-	=60-	=60-	=60-	=60-	=60-	=60-	=60-
1d	sfor-	1f	sfor-	1a	sfor-	1dd	sfor-	1ff	sfor-	1aa	sfor-
2d	-zo	2d	-zo	2a	-zo	2a	-zo	2ff	-zo	2aa	-zo
1.A	Di	1.e	Di	2ryy	.	1.cc	Di	1.ee	Di	1.a	Di
.	.	.	.	1ryy	.	.	.	.	.	.	.
2E	pie-	2e	pie-	1ryy	.	2b	pie-	2b	pie-	2g	pie-
1A	-tà	1e	-tà,	.	.	1a	-tà,	1cc#X	-tà,	1a	-tà,
.	.	.	.	2ryy	.	.	.	.	.	.	.
2A	di	2ryy	.	2e	di	2a	di	2cc#i	di	2ryy	.
=61-	=61-	=61-	=61-	=61-	=61-	=61-	=61-	=61-	=61-	=61-	=61-
2G	bel-	1%5r	.	2g	bel-	2b	bel-	2dd	bel-	1%5r	.
1c	-lez-	.	.	1g	-lez-	1cc	-lez-	1ee	-lez-	.	.
1c	-za:	.	.	1g	-za:	1cc	-za:	1ee	-za:	.	.
4c	che,	.	.	4g	che,	2ryy	.	4ee	che,	.	.
4c	s'io	.	.	4g	s'io	.	.	4ee	s'io	.	.
4c	pos-	.	.	4g	pos-	1ryy	.	4ee	pos-	.	.
4c	-so	.	.	4g	-so	.	.	4ee	-so	.	.
4.A	Que-	.	.	4.a	Que-	.	.	4.ee	Que-	.	.
8d	-sta	.	.	8a	-sta	.	.	8ff	-sta	.	.
4c	ma-	.	.	4g	ma-	1ryy	.	4ee	ma-	.	.
8cL	-no	.	.	8gL	-no	.	.	8eeL	-no	.	.
8AJ	rav-	.	.	8f#XJ	rav-	.	.	8ccJ	rav-	.	.
8cL	-vo-	.	.	8gL	-vo-	.	.	8eeL	-vo-	.	.
8c	-glie-	.	.	8g	-glie-	.	.	8ee	-glie-	.	.
8A	-re	.	.	8a	-re	.	.	8cc	-re	.	.
8BJ	nel	.	.	8gJ	nel	.	.	8ddJ	nel	.	.
=62-	=62-	=62-	=62-	=62-	=62-	=62-	=62-	=62-	=62-	=62-	=62-
4c	cri-	2ryy	.	4g	cri-	2ryy	.	4ee	cri-	2ryy	.
4c	-ne,	.	.	4g	-ne,	.	.	4ee	-ne,	.	.
4r	.	4r	.	4r	.	4r	.	4r	.	4r	.
4.c	In-	4.c	In-	4.g	In-	4.cc	In-	4.ee	In-	4.gg	In-
8c	-di	8c	-di	8g	-di	8cc	-di	8ee	-di	8gg	-di
4F	non	4c	non	4a	non	4cc	non	4ff	non	4ff	non
4c	par-	4c	par-	4g	par-	4cc	par-	4ee	par-	4gg	par-
4F	-ti-	4c	-ti-	4f	-ti-	4cc	-ti-	4ff	-ti-	4aa	-ti-
2c	-rà,	2c	-rà,	2g	-rà,	2cc	-rà,	2ee	-rà,	2gg	-rà,
4r	.	4r	.	4r	.	4r	.	4r	.	4r	.
4.c	In-	4.c	In-	4.g	In-	4.cc	In-	4.ee	In-	4.gg	In-
8c	-di	8c	-di	8g	-di	8cc	-di	8ee	-di	8gg	-di
4G	non	4d	non	4g	non	4b	non	4dd	non	4gg	non
4d	par-	4d	par-	4a	par-	4a	par-	4dd	par-	4ff#X	par-
4G	-ti-	4d	-ti-	4g	-ti-	4b	-ti-	4dd	-ti-	4gg	-ti-
4.d	-rà	4.d	-rà	4.f#X	-rà	4.a	-rà	4.dd	-rà	4.aa	-rà
8d	ch'io	8d	ch'io	8f#i	ch'io	8a	ch'io	8dd	ch'io	8aa	ch'io
4G	pria	4d	pria	4g	pria	4b	pria	4dd	pria	4gg	pria
4G	non	4d	non	4g	non	4b	non	4dd	non	4gg	non
=63-	=63-	=63-	=63-	=63-	=63-	=63-	=63-	=63-	=63-	=63-	=63-
2c	tin-	2c	tin-	2g	tin-	2cc	tin-	2ee	tin-	2gg	tin-
2c	-ga	2c	-ga	2e	-ga	2g	-ga	2cc	-ga	2gg	-ga
4.F	L'ar-	4.c	L'ar-	4.f	L'ar-	4.a	L'ar-	4.cc	L'ar-	4.ff	L'ar-
8F	-mi	8c	-mi	8f	-mi	8a	-mi	8cc	-mi	8ff	-mi
2F	mie	2c	mie	2f	mie	2a	mie	2cc	mie	2ff	mie
4F	per	4c	per	4f	per	4a	per	4cc	per	4ff	per
4F	ven-	4c	ven-	4f	ven-	4a	ven-	4cc	ven-	4ff	ven-
2F	-det-	2c	-det-	2f	-det-	2a	-det-	2cc	-det-	2ff	-det-
4C	-ta	4c	-ta	4e	-ta	4cc	-ta	4ee	-ta	4gg	-ta
2G	nel	2d	nel	2g	nel	2b	nel	2dd	nel	2gg	nel
4G	suo	4d	suo	4g	suo	4b	suo	4dd	suo	4gg	suo
2D	san-	2d	san-	2a	san-	2a	san-	2dd	san-	2ff#X	san-
2G	-gue,	2d	-gue,	2d	-gue,	2b	-gue,	2dd	-gue,	2gg	-gue,
=64-	=64-	=64-	=64-	=64-	=64-	=64-	=64-	=64-	=64-	=64-	=64-
4.F	L'ar-	4.A	L'ar-	4.a	L'ar-	4.cc	L'ar-	4.ff	L'ar-	4.aa	L'ar-
8F	-mi	8c	-mi	8a	-mi	8cc	-mi	8ff	-mi	8aa	-mi
2F	mie	2c	mie	2a	mie	2cc	mie	2ff	mie	2aa	mie
4F	per	4c	per	4a	per	4cc	per	4ff	per	4aa	per
4F	ven-	4c	ven-	4a	ven-	4cc	ven-	4ff	ven-	4aa	ven-
2F	-det-	2c	-det-	2a	-det-	2cc	-det-	2ff	-det-	2aa	-det-
2C	-ta	2c	-ta	2e	-ta	2cc	-ta	2ee	-ta	2gg	-ta
1G	nel	1d	nel	1g	nel	1b	nel	1dd	nel	1gg	nel
2G	suo	2d	suo	2g	suo	2b	suo	2dd	suo	2gg	suo
1D	san-	1d	san-	1a	san-	1a	san-	1dd	san-	1ff#X	san-
=65-	=65-	=65-	=65-	=65-	=65-	=65-	=65-	=65-	=65-	=65-	=65-
00Gl	-gue.	00dl	-gue.	00gl	-gue.	00bl	-gue.	00ddl	-gue.	00ggl	-gue.
==-	==-	==-	==-	==-	==-	==-	==-	==-	==-	==-	==-
*-	*-	*-	*-	*-	*-	*-	*-	*-	*-	*-	*-
!!!system-decoration: s1,s2,s3,s4,s5,s6
!!!RDF**kern: i = editorial accidental
!!!RDF**kern: l = terminal long
!!!ENC: Emiliano Ricciardi
!!!END: 2019/01/01
!!!EED: Emiliano Ricciardi
!!!EEV: 2019/01/21
!!!YEC: Copyright 2018 Emiliano Ricciardi, All Rights Reserved
!!!ONB: Translated from MusicXML on 2019/01/21
